X: 6
T: The Hare In The Corn
R: jig
M: 6/8
L: 1/8
K: Dmaj
|: A |FAA AFA | BdB AFD | FEE EDE | FDC D2 E |
FAA AFA | BdB AFA | Bcd efe | d3 d2 :|
|: g |f3 faf | g2 e ede | faf fef | a3 aba |
f3 faf | g2 e edB | ABd efe | d3 d2 :|


Tune 1736	Setting 1736

